src/assets/icon-link.svg

<svg width="16" height="16" viewBox="0 0 16 16" fill="none" xmlns="http://www.w3.org/2000/svg">
<path d="M9.33333 2V3.33333H11.7267L5.17333 9.88667L6.11333 10.8267L12.6667 4.27333V6.66667H14V2M12.6667 12.6667H3.33333V3.33333H8V2H3.33333C2.59333 2 2 2.6 2 3.33333V12.6667C2 13.0203 2.14048 13.3594 2.39052 13.6095C2.64057 13.8595 2.97971 14 3.33333 14H12.6667C13.0203 14 13.3594 13.8595 13.6095 13.6095C13.8595 13.3594 14 13.0203 14 12.6667V8H12.6667V12.6667Z" fill="#2453FF"/>
</svg>

<?xml version="1.0" encoding="utf-8"?>
<!-- Generator: $$$/GeneralStr/196=Adobe Illustrator 27.6.0, SVG Export Plug-In . SVG Version: 6.00 Build 0)  -->
<svg version="1.1" id="Layer_1" xmlns="http://www.w3.org/2000/svg" xmlns:xlink="http://www.w3.org/1999/xlink" x="0px" y="0px"
	 viewBox="0 0 16 16" style="enable-background:new 0 0 16 16;" xml:space="preserve">
<style type="text/css">
	.st0{fill:#81AEFC;}
</style>
<path class="st0" d="M9.3,2v1.3h2.4L5.2,9.9l0.9,0.9l6.6-6.6v2.4H14V2 M12.7,12.7H3.3V3.3H8V2H3.3C2.6,2,2,2.6,2,3.3v9.3
	c0,0.4,0.1,0.7,0.4,0.9C2.6,13.9,3,14,3.3,14h9.3c0.4,0,0.7-0.1,0.9-0.4c0.2-0.3,0.4-0.6,0.4-0.9V8h-1.3V12.7z"/>
</svg>
